svg/format_list_group.svg

<svg xmlns="http://www.w3.org/2000/svg" viewBox="0 0 24 24"><path d="M5 5v14h2v2H3V3h4v2zm15 2H7v2h13zm0 4H7v2h13zm0 4H7v2h13z"/></svg>

<svg xmlns="http://www.w3.org/2000/svg" id="mdi-format-list-group" viewBox="0 0 24 24"><path d="M5 5V19H7V21H3V3H7V5H5M20 7H7V9H20V7M20 11H7V13H20V11M20 15H7V17H20V15Z" /></svg>
